X: 30507
T: Oliver Jack
R: reel
M: 4/4
K: Gmajor
(3ABc|:d2 dd|g2 Bc|d2 de|dc Bc|d2 dd|g2 BB|1 BA z2|z2 Bc:|2 BA z2|z2 AB||
|:c2 BA|d2 cA|BA Bc|d2 (3gfe|d2 Bc|dc AF|1 AG z2|z2 AB:|2 AG z2||

